build/svg/cmd/lc_hideallnotes.svg

<?xml version="1.0" encoding="UTF-8" standalone="no"?>
<svg
   xmlns:dc="http://purl.org/dc/elements/1.1/"
   xmlns:cc="http://creativecommons.org/ns#"
   xmlns:rdf="http://www.w3.org/1999/02/22-rdf-syntax-ns#"
   xmlns:svg="http://www.w3.org/2000/svg"
   xmlns="http://www.w3.org/2000/svg"
   xmlns:sodipodi="http://sodipodi.sourceforge.net/DTD/sodipodi-0.dtd"
   xmlns:inkscape="http://www.inkscape.org/namespaces/inkscape"
   viewBox="0 0 24 24"
   version="1.1"
   id="svg4"
   sodipodi:docname="lc_hideallnotes.svg"
   inkscape:version="0.92.5 (2060ec1f9f, 2020-04-08)"
   inkscape:export-filename="/home/jupiter007/Libreoffice yaru theme fullcolor/build/cmd/lc_hideallnotes.png"
   inkscape:export-xdpi="95"
   inkscape:export-ydpi="95">
  <metadata
     id="metadata10">
    <rdf:RDF>
      <cc:Work
         rdf:about="">
        <dc:format>image/svg+xml</dc:format>
        <dc:type
           rdf:resource="http://purl.org/dc/dcmitype/StillImage" />
      </cc:Work>
    </rdf:RDF>
  </metadata>
  <defs
     id="defs8" />
  <sodipodi:namedview
     pagecolor="#ffffff"
     bordercolor="#666666"
     borderopacity="1"
     objecttolerance="10"
     gridtolerance="10"
     guidetolerance="10"
     inkscape:pageopacity="0"
     inkscape:pageshadow="2"
     inkscape:window-width="1920"
     inkscape:window-height="1011"
     id="namedview6"
     showgrid="true"
     inkscape:zoom="13.906433"
     inkscape:cx="-9.56008"
     inkscape:cy="13.678223"
     inkscape:window-x="0"
     inkscape:window-y="32"
     inkscape:window-maximized="1"
     inkscape:current-layer="svg4">
    <inkscape:grid
       type="xygrid"
       id="grid832" />
  </sodipodi:namedview>
  <path
     style="opacity:0.6;fill:#ffffff;fill-opacity:1;fill-rule:nonzero;stroke:#000000;stroke-width:2;stroke-linecap:butt;stroke-linejoin:round;stroke-miterlimit:4;stroke-dasharray:none;stroke-dashoffset:0;stroke-opacity:1"
     d="M 4.9999998,3.001037 H 15 c 1,0 2,0 2,1 v 6 1 c 0,1 -1,1 -2,1 H 8.9999998 v 3 l -2.5,-3 h -1.5 c -1,0 -2,0 -2,-1 v -7 c 0,-1 1,-1 2,-1 z"
     id="path24"
     inkscape:connector-curvature="0"
     sodipodi:nodetypes="ssscsscccssss" />
  <path
     sodipodi:nodetypes="ssscsscccssss"
     inkscape:connector-curvature="0"
     id="path26"
     d="M 4.9999998,3.001037 H 15 c 1,0 2,0 2,1 v 6 1 c 0,1 -1,1 -2,1 H 8.9999998 v 3 l -2.5,-3 h -1.5 c -1,0 -2,0 -2,-1 v -7 c 0,-1 1,-1 2,-1 z"
     style="opacity:1;fill:#fa9381;fill-opacity:1;fill-rule:nonzero;stroke:none;stroke-width:0.00119524;stroke-linecap:butt;stroke-linejoin:round;stroke-miterlimit:4;stroke-dasharray:none;stroke-dashoffset:0;stroke-opacity:1" />
  <path
     sodipodi:nodetypes="sssssss"
     inkscape:connector-curvature="0"
     id="path28"
     d="M 5.4999998,6.001037 H 14.5 c 0.277,0 0.5,0.223 0.5,0.5 0,0.277 -0.223,0.5 -0.5,0.5 H 5.4999998 c -0.277,0 -0.5,-0.223 -0.5,-0.5 0,-0.277 0.223,-0.5 0.5,-0.5 z"
     style="opacity:1;fill:#ffffff;fill-opacity:1;fill-rule:nonzero;stroke:none;stroke-width:0.00119524;stroke-linecap:butt;stroke-linejoin:round;stroke-miterlimit:4;stroke-dasharray:none;stroke-dashoffset:0;stroke-opacity:1" />
  <path
     sodipodi:nodetypes="sssssss"
     inkscape:connector-curvature="0"
     id="path30"
     d="M 5.4999998,8.001036 H 14.5 c 0.277,0 0.5,0.223 0.5,0.5 0,0.277 -0.223,0.5 -0.5,0.5 H 5.4999998 c -0.277,0 -0.5,-0.223 -0.5,-0.5 0,-0.277 0.223,-0.5 0.5,-0.5 z"
     style="opacity:1;fill:#ffffff;fill-opacity:1;fill-rule:nonzero;stroke:none;stroke-width:0.00119524;stroke-linecap:butt;stroke-linejoin:round;stroke-miterlimit:4;stroke-dasharray:none;stroke-dashoffset:0;stroke-opacity:1" />
  <path
     sodipodi:nodetypes="ssscsscccssss"
     inkscape:connector-curvature="0"
     id="path832"
     d="M 8.9999998,9.001037 H 19 c 1,0 2,0 2,1 v 6 1 c 0,1 -1,1 -2,1 h -6 v 3 l -2.5,-3 H 8.9999998 c -1,0 -2,0 -2,-1 v -7 c 0,-1 1,-1 2,-1 z"
     style="opacity:0.6;fill:#ffffff;fill-opacity:1;fill-rule:nonzero;stroke:#000000;stroke-width:2;stroke-linecap:butt;stroke-linejoin:round;stroke-miterlimit:4;stroke-dasharray:none;stroke-dashoffset:0;stroke-opacity:1" />
  <path
     style="opacity:1;fill:#fa9381;fill-opacity:1;fill-rule:nonzero;stroke:none;stroke-width:0.00119524;stroke-linecap:butt;stroke-linejoin:round;stroke-miterlimit:4;stroke-dasharray:none;stroke-dashoffset:0;stroke-opacity:1"
     d="M 8.9999998,9.001037 H 19 c 1,0 2,0 2,1 v 6 1 c 0,1 -1,1 -2,1 h -6 v 3 l -2.5,-3 H 8.9999998 c -1,0 -2,0 -2,-1 v -7 c 0,-1 1,-1 2,-1 z"
     id="path820"
     inkscape:connector-curvature="0"
     sodipodi:nodetypes="ssscsscccssss" />
  <path
     style="opacity:1;fill:#ffffff;fill-opacity:1;fill-rule:nonzero;stroke:none;stroke-width:0.00119524;stroke-linecap:butt;stroke-linejoin:round;stroke-miterlimit:4;stroke-dasharray:none;stroke-dashoffset:0;stroke-opacity:1"
     d="M 9.4999998,12.001037 H 18.5 c 0.277,0 0.5,0.223 0.5,0.5 0,0.277 -0.223,0.5 -0.5,0.5 H 9.4999998 c -0.277,0 -0.5,-0.223 -0.5,-0.5 0,-0.277 0.223,-0.5 0.5,-0.5 z"
     id="path826"
     inkscape:connector-curvature="0"
     sodipodi:nodetypes="sssssss" />
  <path
     style="opacity:1;fill:#ffffff;fill-opacity:1;fill-rule:nonzero;stroke:none;stroke-width:0.00119524;stroke-linecap:butt;stroke-linejoin:round;stroke-miterlimit:4;stroke-dasharray:none;stroke-dashoffset:0;stroke-opacity:1"
     d="M 9.4999998,14.001036 H 18.5 c 0.277,0 0.5,0.223 0.5,0.5 0,0.277 -0.223,0.5 -0.5,0.5 H 9.4999998 c -0.277,0 -0.5,-0.223 -0.5,-0.5 0,-0.277 0.223,-0.5 0.5,-0.5 z"
     id="path824"
     inkscape:connector-curvature="0"
     sodipodi:nodetypes="sssssss" />
  <path
     sodipodi:nodetypes="sssss"
     inkscape:connector-curvature="0"
     id="path839"
     d="m 16,13 c 3.865992,0 6.999999,2.790861 6.999999,5 0,2.209139 -3.134007,5 -6.999999,5 -3.865993,0 -6.9999999,-2.790861 -6.9999999,-5 0,-2.209139 3.1340069,-5 6.9999999,-5 z"
     style="opacity:0.6;fill:#000000;fill-opacity:1;stroke:#000000;stroke-width:2;stroke-linecap:round;stroke-linejoin:round;stroke-miterlimit:4;stroke-dasharray:none;stroke-opacity:1" />
  <path
     style="opacity:1;fill:#ffffff;fill-opacity:1;stroke:none;stroke-width:2;stroke-linecap:round;stroke-linejoin:round;stroke-miterlimit:4;stroke-dasharray:none;stroke-opacity:1"
     d="m 16,13 c 3.865992,0 6.999999,2.790861 6.999999,5 0,2.209139 -3.134007,5 -6.999999,5 -3.865993,0 -6.9999999,-2.790861 -6.9999999,-5 0,-2.209139 3.1340069,-5 6.9999999,-5 z"
     id="path826-5"
     inkscape:connector-curvature="0"
     sodipodi:nodetypes="sssss" />
  <path
     d="m 16,16 c -1.104569,0 -2,0.89543 -2,2 0,1.104569 0.895431,2 2,2 1.104569,0 1.999999,-0.89543 1.999999,-2 0.02896,-0.194894 0.02896,-0.392997 0,-0.587891 C 17.825991,17.801139 17.42455,18.037143 17,18 16.447715,18 16,17.552285 16,17 15.96318,16.574973 16.200048,16.173388 16.589844,16 16.39431,15.97085 16.195534,15.97085 16,16 Z"
     id="path2-3"
     inkscape:connector-curvature="0"
     style="fill:#232629"
     sodipodi:nodetypes="csscccccc" />
  <path
     inkscape:connector-curvature="0"
     style="opacity:1;fill:#232629;fill-opacity:1;stroke:none;stroke-width:2;stroke-linecap:round;stroke-linejoin:round;stroke-miterlimit:4;stroke-dasharray:none;stroke-opacity:1"
     d="m 16,14 a 4,4 0 0 0 -4,4 4,4 0 0 0 4,4 4,4 0 0 0 3.999999,-4 A 4,4 0 0 0 16,14 Z m 0,1 A 3,3 0 0 1 18.999999,18 3,3 0 0 1 16,21 3,3 0 0 1 13,18 3,3 0 0 1 16,15 Z"
     id="path833" />
  <rect
     y="23.490431"
     x="-3.5814023"
     height="1"
     width="16"
     id="rect853"
     style="opacity:0.6;fill:#000000;fill-opacity:1;fill-rule:evenodd;stroke:#000000;stroke-width:2;stroke-linecap:butt;stroke-linejoin:round;stroke-miterlimit:4;stroke-dasharray:none;stroke-opacity:1"
     transform="rotate(-30)" />
  <rect
     style="opacity:1;fill:#aee3f8;fill-opacity:1;fill-rule:evenodd;stroke:none;stroke-width:2;stroke-linecap:butt;stroke-linejoin:round;stroke-miterlimit:4;stroke-dasharray:none;stroke-opacity:1"
     id="rect851"
     width="16"
     height="1"
     x="-3.5814023"
     y="23.490431"
     transform="rotate(-30)" />
</svg>

<svg xmlns="http://www.w3.org/2000/svg" viewBox="0 0 24 24"><path d="M5 3.001h10c1 0 2 0 2 1v7c0 1-1 1-2 1H9v3l-2.5-3H5c-1 0-2 0-2-1v-7c0-1 1-1 2-1z" opacity=".6" fill="#fff" stroke="#000" stroke-width="2" stroke-linejoin="round"/><path d="M5 3.001h10c1 0 2 0 2 1v7c0 1-1 1-2 1H9v3l-2.5-3H5c-1 0-2 0-2-1v-7c0-1 1-1 2-1z" fill="#fa9381"/><path d="M5.5 6.001h9a.499.499 0 110 1h-9a.499.499 0 110-1zM5.5 8.001h9a.499.499 0 110 1h-9a.499.499 0 110-1z" fill="#fff"/><path d="M9 9.001h10c1 0 2 0 2 1v7c0 1-1 1-2 1h-6v3l-2.5-3H9c-1 0-2 0-2-1v-7c0-1 1-1 2-1z" opacity=".6" fill="#fff" stroke="#000" stroke-width="2" stroke-linejoin="round"/><path d="M9 9.001h10c1 0 2 0 2 1v7c0 1-1 1-2 1h-6v3l-2.5-3H9c-1 0-2 0-2-1v-7c0-1 1-1 2-1z" fill="#fa9381"/><path d="M9.5 12.001h9a.499.499 0 110 1h-9a.499.499 0 110-1zM9.5 14.001h9a.499.499 0 110 1h-9a.499.499 0 110-1z" fill="#fff"/><path d="M16 13c3.866 0 7 2.79 7 5s-3.134 5-7 5-7-2.79-7-5 3.134-5 7-5z" opacity=".6" stroke="#000" stroke-width="2" stroke-linecap="round" stroke-linejoin="round"/><path d="M16 13c3.866 0 7 2.79 7 5s-3.134 5-7 5-7-2.79-7-5 3.134-5 7-5z" fill="#fff"/><path d="M16 16a2 2 0 102 2 2 2 0 000-.588A1 1 0 0117 18a1 1 0 01-1-1 1 1 0 01.59-1 2 2 0 00-.59 0z" fill="#232629"/><path d="M16 14a4 4 0 00-4 4 4 4 0 004 4 4 4 0 004-4 4 4 0 00-4-4zm0 1a3 3 0 013 3 3 3 0 01-3 3 3 3 0 01-3-3 3 3 0 013-3z" fill="#232629"/><path opacity=".6" fill-rule="evenodd" stroke="#000" stroke-width="2" stroke-linejoin="round" d="M8.644 22.133l13.856-8L23 15 9.144 23z"/><path fill="#aee3f8" fill-rule="evenodd" d="M8.644 22.133l13.856-8L23 15 9.144 23z"/></svg>
